build/assets/bubble.svg

<?xml version="1.0" encoding="utf-8"?>
<!-- Generated by IcoMoon.io -->
<!DOCTYPE svg PUBLIC "-//W3C//DTD SVG 1.1//EN" "http://www.w3.org/Graphics/SVG/1.1/DTD/svg11.dtd">
<svg version="1.1" xmlns="http://www.w3.org/2000/svg" xmlns:xlink="http://www.w3.org/1999/xlink" width="100%" height="100%" viewBox="0 0 512 512" preserveAspectRatio="xMidYMid meet">
<g id="icomoon-ignore">
</g>
<path fill="#333333" d="M256 96c-27.466 0-53.994 4.331-78.847 12.871-23.356 8.027-44.153 19.372-61.814 33.722-33.107 26.899-51.339 61.492-51.339 97.407 0 20.149 5.594 39.689 16.626 58.076 11.376 18.96 28.491 36.293 49.494 50.126 15.178 9.996 25.39 25.974 28.088 43.947 0.9 5.992 1.464 12.044 1.685 18.062 3.735-3.097 7.375-6.423 10.94-9.988 12.077-12.076 28.39-18.745 45.251-18.745 2.684 0 5.381 0.168 8.078 0.512 10.487 1.333 21.199 2.010 31.838 2.010 27.467 0 53.994-4.33 78.847-12.871 23.356-8.027 44.153-19.372 61.814-33.722 33.107-26.898 51.339-61.492 51.339-97.407s-18.232-70.508-51.339-97.407c-17.661-14.349-38.458-25.695-61.814-33.722-24.853-8.54-51.38-12.871-78.847-12.871zM256 32v0c141.385 0 256 93.125 256 208s-114.615 208-256 208c-13.578 0-26.905-0.867-39.912-2.522-54.989 54.989-120.625 64.85-184.088 66.298v-13.458c34.268-16.789 64-47.37 64-82.318 0-4.877-0.379-9.665-1.082-14.348-57.898-38.132-94.918-96.377-94.918-161.652 0-114.875 114.615-208 256-208z"></path>
</svg>

<svg xmlns="http://www.w3.org/2000/svg" width="512" height="512" viewBox="0 0 512 512"><path fill="#333" d="M256 96c-27.466 0-53.994 4.33-78.847 12.87-23.356 8.028-44.153 19.373-61.814 33.723C82.23 169.493 64 204.085 64 240c0 20.15 5.594 39.69 16.626 58.076 11.376 18.96 28.49 36.293 49.494 50.126 15.178 9.996 25.39 25.974 28.088 43.947.9 5.99 1.464 12.043 1.685 18.06 3.735-3.096 7.375-6.422 10.94-9.987 12.077-12.076 28.39-18.745 45.25-18.745 2.685 0 5.382.168 8.08.512C234.648 383.323 245.36 384 256 384c27.467 0 53.994-4.33 78.847-12.87 23.356-8.028 44.153-19.373 61.814-33.723C429.77 310.51 448 275.915 448 240s-18.232-70.508-51.34-97.407c-17.66-14.35-38.457-25.695-61.813-33.722C309.994 100.33 283.467 96 256 96zm0-64c141.385 0 256 93.125 256 208S397.385 448 256 448c-13.578 0-26.905-.867-39.912-2.522-54.99 54.99-120.625 64.85-184.088 66.298v-13.458c34.268-16.79 64-47.37 64-82.318 0-4.877-.38-9.665-1.082-14.348C37.02 363.52 0 305.275 0 240 0 125.125 114.615 32 256 32z"/></svg>
